X:1
T:Title
%%score { ( 1 4 ) | ( 2 3 ) }
L:1/8
M:4/4
K:Db
V:1 treble nm="Grand Piano"
V:4 treble 
V:2 bass 
V:3 bass 
V:1
 z4 z2[Q:1/4=96] [fa]2 | [Bgb][fa][Fdf][Fd] [B,GB][Bd][EGe][Bd] | %2
 [Adf]2 [ad'f'a']2 [F,A,Dfd'f'a'd'']2 [fa]2 | [Acea][ce][Ece][df] [Geg][eg][Fdf][c_f] | %4
 [Adf]2 [ad'f'a']2 [d'f'a'd'']2 [fa]2 | [Bgb][f=a][Bgb][fa] [Bgb][bd'][c_ac'][gb] | [Afa]4 z4 | %7
 [Ece][df][=GBe=g][ca] [Bdb][c=a][Bdb][ec'] |[M:7/8] [ca]ab _c' [cga=c']3 |[M:1/4] [Aca]2 | %10
[M:4/4] [dfd'][fd'][dfd'][fd'] [dfd'][fa][Gg]f | g2 [egc']2 [egc']2 [gb]2 | %12
[M:5/8] [cac'][gb][Afa] [_f=g][Ge_g] |[M:3/8] [ce][=D_c=d][=ce] | %14
[M:3/4] [ad'f']2 [d'f'a'd'']2 [d'f'a'd'']2 |[M:1/4] [Aca]2 | %16
[M:4/4] [dfd'][fd'][dfd'][fd'] [dfd'][fa][Gg]f | g2 [egc']2 [egc']2 [gb]2 | %18
[M:5/8] [cac'][gb][Afa] [_f=g][Ge_g] |[M:3/8] [Ac][Fdf][ce] | %20
[M:7/8] [DFAd]2 [ad'f'a']2 [d'f'a'd'']2 z |] %21
V:2
 z4 z2 A2 | z ADD z DDD | z2 [F,A,D]2 D,2 A2 | z E z F z G z _F | z2 [F,A,D]2 [D,F,A,D]2 A2 | %5
 z[K:treble] =A z A[K:bass] z[K:treble] d z B | D,2 F,2 [F,A,D]2 F2 | z[K:treble] F z A z =A z c | %8
[M:7/8][K:bass] z c[K:treble]d =d[K:bass] [E,G,A,C]3 |[M:1/4] [A,,A,]2 | %10
[M:4/4] z[K:treble] d z d[K:bass] z A z[K:treble] [Fd] | %11
 [G,,EBe]2[K:bass] [E,G,B,]2 [G,B,E]2[K:treble] B2 |[M:5/8] z B z =G[K:bass] z |[M:3/8] E z E | %14
[M:3/4] z2 [F,A,D]2 [D,F,A,D]2 |[M:1/4] [A,,A,]2 | %16
[M:4/4] z[K:treble] d z d[K:bass] z A z[K:treble] [Fd] | %17
 [G,,EBe]2[K:bass] [E,G,B,]2 [G,B,E]2[K:treble] B2 |[M:5/8] z B z =G[K:bass] z |[M:3/8] C z E | %20
[M:7/8] z2 [F,A,D]2 [D,F,A,D]2 z |] %21
V:3
 x8 | D,2 [F,A,]2 G,,2 [G,B,]2 | D,4 z4 | A,,2 [E,G,A,C]2 A,,2 [E,G,A,C]2 | D,4 z4 | %5
 G,,2[K:treble] [G,B,D]2[K:bass] G,,2[K:treble] [G,B,D]2 | x8 | %7
 E,2[K:treble] [=G,B,D]2 E,2 [G,B,D]2 |[M:7/8][K:bass] A,,- A,,3[K:treble][K:bass] z z2 | %9
[M:1/4] x2 |[M:4/4] D,2[K:treble] [F,A,D]2[K:bass] D,2 [F,A,D]2[K:treble] | %11
 x2[K:bass] x4[K:treble] x2 |[M:5/8] A,,2 [E,G,A,C]2[K:bass] A,,- |[M:3/8] A,, [E,G,A,C]2 | %14
[M:3/4] D,4 z2 |[M:1/4] x2 |[M:4/4] D,2[K:treble] [F,A,D]2[K:bass] D,2 [F,A,D]2[K:treble] | %17
 x2[K:bass] x4[K:treble] x2 |[M:5/8] A,,2 [E,G,A,C]2[K:bass] A,,- |[M:3/8] A,, [E,G,A,C]2 | %20
[M:7/8] D,- D,3 z z2 |] %21
V:4
 x8 | x8 | F4 z4 | x8 | F6 z2 | x8 | z2 [A,D]2 [Fdf]2 [df]2 | x8 |[M:7/8] A-A-A- A- A3 | %9
[M:1/4] x2 |[M:4/4] x8 | z2 B4 z2 |[M:5/8] x5 |[M:3/8] x3 |[M:3/4] f6 |[M:1/4] x2 |[M:4/4] x8 | %17
 z2 B4 z2 |[M:5/8] x5 |[M:3/8] x3 |[M:7/8] x7 |] %21

